X:1
T:Title
%%score { 1 | 2 }
L:1/8
M:3/4
K:Bb
V:1 treble nm="Grand Piano"
V:2 bass 
V:1
 z2 z2[Q:1/4=94] [DF]2 | [DF][_D=E] [=DF]2 [FB]2 | BA A2 B2 | c=B c2 d2 |[M:2/4] [DB][EG] [DF]2 | %5
[M:1/4] [DF]2 |[M:3/4] [DF][_D=E] [=DF]2 [FB]2 | BA A2 c2 | [=Ec][EG] [EA]2 [DEB]2 | %9
[M:5/8] [C=EA][B,CG] [A,CF]3 |[M:1/4] [Fd]2 |[M:3/4] [Ec][DB] [DB]2 [DF]2 | [FA][EG] [EG]2 [EG]2 | %13
 AB c2 d2 |[M:2/4] [Ec][DB] [DF]2 |[M:1/4] [Fd]2 |[M:3/4] [Ec][DB] [DB]2 [DF]2 | %17
[M:7/8] [FA][EG] [Ge]3 G2 |[M:3/4] Fd e2 d2 |[M:11/16] d3/2c[DB]/-[DB]/-[DB]-<[DB] |] %20
V:2
 z2 z2 [B,,B,]2 | [B,,B,][B,,B,] [B,,B,]2 [D,B,]2 | [F,CE][F,CE] [F,CE]2 [F,B,D]2 | %3
 [F,A,E][F,_A,D] [F,=A,E]2 [F,A,F]2 |[M:2/4] [B,,B,][B,,B,] [B,,B,]2 |[M:1/4] [B,,B,]2 | %6
[M:3/4] [B,,B,][B,,B,] [B,,B,]2 [D,B,]2 | [F,DF][F,CF] [F,CF]2 [F,A,F]2 | [C,G,][C,C] [C,C]2 C,2 | %9
[M:5/8] C,C, F,3 |[M:1/4] [F,A,]2 |[M:3/4] [B,,F,B,][B,,F,] [B,,F,]2 [B,,B,]2 | %12
 [E,B,][E,B,] [E,B,]2 [C,C]2 | [F,CE][F,B,D] [F,A,E]2 [F,A,F]2 |[M:2/4] [B,,F,][B,,B,] [B,,B,]2 | %15
[M:1/4] [B,,B,]2 |[M:3/4] [B,,F,][B,,F,] [B,,F,]2 [B,,B,]2 |[M:7/8] [E,B,][E,B,] [E,B,]3 [E,B,E]2 | %18
[M:3/4] [F,B,D][F,B,F] [F,A,G]2 [F,B,F]2 | %19
[M:11/16] [F,A,F]3/2[F,A,E][B,,F,]/-[B,,F,]/-[B,,F,]-<[B,,F,] |] %20

